svgs/light/paint-brush-fine.svg

<svg xmlns="http://www.w3.org/2000/svg" viewBox="0 0 576 512"><!-- Font Awesome Pro 6.0.0-alpha2 by @fontawesome - https://fontawesome.com License - https://fontawesome.com/license (Commercial License) --><path d="M557.038 18.962C531.724 -6.321 490.565 -6.321 465.282 18.962L195.043 289.204C191.472 288.727 187.958 287.987 184.29 287.983C184.259 287.983 184.259 287.983 184.259 287.983C156.444 287.983 130.286 298.857 110.691 318.595C88.315 341.108 78.406 371.497 80.978 400.99C83.228 426.818 64.004 447.995 32.002 447.995C14.327 447.995 0 462.322 0 479.998C0 497.671 14.327 512 32.002 512C32.002 512 60.129 512 85.721 512C140.256 512 218.73 504.431 257.826 465.077C280.511 442.219 289.326 411.359 286.269 381.49L557.038 110.719C582.321 85.421 582.321 44.261 557.038 18.962ZM221.453 308.047L285.457 244.042L331.96 290.546L267.956 354.55L221.453 308.047ZM235.123 442.522C211.464 466.338 157.009 479.998 85.721 479.998H32.002C57.021 479.998 79.095 470.948 94.155 454.517C108.058 439.35 114.701 419.354 112.859 398.208C111.004 376.943 118.487 356.146 133.402 341.141C146.94 327.504 165.001 319.991 184.264 319.985C185.536 319.987 186.872 320.052 188.337 320.188L255.318 387.172C256.744 407.848 249.495 428.039 235.123 442.522ZM534.411 88.093L354.587 267.919L308.083 221.415L487.908 41.589C500.721 28.776 521.598 28.776 534.411 41.589S547.225 75.279 534.411 88.093Z"/></svg>

<svg xmlns="http://www.w3.org/2000/svg" viewBox="0 0 576 512"><!--! Font Awesome Pro 6.0.0-alpha3 by @fontawesome - https://fontawesome.com License - https://fontawesome.com/license (Commercial License) --><path d="M557 18.96c-25.31-25.28-66.47-25.28-91.76 0L195 289.2c-3.571-.4766-7.108-1.206-10.78-1.209c-.0313 0 0 0 0 0c-27.81 0-53.98 10.87-73.58 30.61c-22.38 22.51-32.28 52.9-29.71 82.39c2.25 25.83-16.97 47-48.97 47C14.33 447.1 0 462.3 0 479.1C0 497.7 14.33 512 32 512h53.72c54.53 0 133-7.567 172.1-46.92c22.69-22.86 31.51-53.72 28.45-83.59l270.8-270.8C582.3 85.42 582.3 44.26 557 18.96zM221.5 308l64-64l46.5 46.5l-64 64L221.5 308zM235.1 442.5c-23.66 23.82-78.11 37.48-149.4 37.48H32c25.02 0 47.09-9.05 62.15-25.48c13.9-15.17 20.55-35.16 18.7-56.31c-1.856-21.27 5.627-42.06 20.54-57.07c13.54-13.64 31.6-21.15 50.86-21.16c1.272 .002 2.608 .0664 4.073 .2031l66.98 66.98C256.7 407.8 249.5 428 235.1 442.5zM534.4 88.09l-179.8 179.8L308.1 221.4l179.8-179.8c12.81-12.81 33.69-12.81 46.5 0S547.2 75.28 534.4 88.09z"/></svg>
